tools/download-figma-icons/icons/action/person-cycle.svg

<svg width="24" height="24" viewBox="0 0 24 24" fill="none" xmlns="http://www.w3.org/2000/svg">
<path fill-rule="evenodd" clip-rule="evenodd" d="M12 0C18.6274 0 24 5.37258 24 12C24 18.6274 18.6274 24 12 24C5.37258 24 0 18.6274 0 12C0 5.37258 5.37258 0 12 0ZM12 2C6.47715 2 2 6.47715 2 12C2 14.3884 2.83732 16.5812 4.23443 18.301C4.75506 15.9496 6.03864 14.1872 8.05656 13.0743C7.3945 12.2263 7 11.1592 7 10C7 7.23858 9.23858 5 12 5C14.7614 5 17 7.23858 17 10C17 11.1592 16.6055 12.2262 15.9435 13.0743C17.9615 14.1871 19.2451 15.9494 19.7657 18.3008C21.1627 16.5811 22 14.3883 22 12C22 6.47715 17.5228 2 12 2ZM17.9977 20.0025C17.782 17.2174 16.5525 15.4242 14.2379 14.4724C13.5646 14.81 12.8045 15 12 15C11.1955 15 10.4355 14.81 9.76216 14.4725C7.44767 15.4243 6.21818 17.2175 6.00255 20.0026C7.67344 21.2569 9.74993 22 12 22C14.2502 22 16.3267 21.2568 17.9977 20.0025ZM12 7C10.3431 7 9 8.34315 9 10C9 11.6569 10.3431 13 12 13C13.6569 13 15 11.6569 15 10C15 8.34315 13.6569 7 12 7Z" fill="black"/>
</svg>

<svg xmlns="http://www.w3.org/2000/svg" width="24" height="24" fill="none" viewBox="0 0 24 24"><path fill="currentColor" fill-rule="evenodd" d="M12 0c6.627 0 12 5.373 12 12s-5.373 12-12 12S0 18.627 0 12 5.373 0 12 0m0 2C6.477 2 2 6.477 2 12a9.96 9.96 0 0 0 2.234 6.301c.521-2.351 1.805-4.114 3.823-5.227a5 5 0 1 1 7.887 0c2.018 1.113 3.301 2.875 3.822 5.227A9.96 9.96 0 0 0 22 12c0-5.523-4.477-10-10-10m5.998 18.003c-.216-2.786-1.446-4.579-3.76-5.53A5 5 0 0 1 12 15a5 5 0 0 1-2.238-.527c-2.314.951-3.544 2.745-3.76 5.53A9.96 9.96 0 0 0 12 22c2.25 0 4.327-.743 5.998-1.997M12 7a3 3 0 1 0 0 6 3 3 0 0 0 0-6" clip-rule="evenodd"/></svg>
